X:1
T:St. Catherines Lane at Five. LIT.001
T:Torryburn Lasses,aka. LIT.001
M:2/2
Q:1/4=150
L:1/8
B:Wm. Litten MS, 1802
Z:Village Music Project 2017 Anne Wride
K:G
D2 |: G2 BG B2 dd | c2 ec e2 gg | G2BG Bddg | ecAF G2G2 |
G2 BG B2dd | c2ec e2gg | G2BG Bddg | ecAF G2G2 :|
|: g2 bg aged | edef gdB2 | gfga bagf | edef g2g2 |
gfga bagf | edef gdB2 | cBcd efge | dcBA G2G2 :|

